img/icons/icon_phone.svg

<svg width="20" height="20" viewBox="0 0 20 20" fill="none" xmlns="http://www.w3.org/2000/svg">
<g clip-path="url(#clip0_2403:1625)">
<path d="M17.7561 9.4H9.61816V10.6H17.7561L15.7455 12.7L16.6072 13.6L19.5752 10.5C19.6684 10.3702 19.7188 10.2123 19.7188 10.05C19.7188 9.88772 19.6684 9.72982 19.5752 9.6L16.6072 6.5L15.7455 7.4L17.7561 9.4Z" fill="black"/>
<path d="M8.37362 19.4V13.2C8.36256 13.0447 8.29849 12.8987 8.19306 12.7886C8.08763 12.6785 7.94786 12.6116 7.79917 12.6H3.5866C3.59153 12.9167 3.71415 13.2189 3.92855 13.4428C4.14295 13.6668 4.43232 13.7949 4.73548 13.8H7.12899V18.8H3.5866C3.35992 18.8149 3.13268 18.7825 2.91809 18.7048C2.70349 18.6271 2.50582 18.5057 2.33656 18.3475C2.1673 18.1893 2.02983 17.9976 1.93215 17.7834C1.83446 17.5693 1.7785 17.337 1.76753 17.1V3.10001C1.75968 2.6373 1.92564 2.18977 2.22987 1.85331C2.5341 1.51686 2.95238 1.31824 3.39512 1.30001H7.12899V6.30001H4.83122C4.52806 6.30516 4.23869 6.43324 4.02429 6.65718C3.80989 6.88112 3.68727 7.18336 3.68234 7.50001H7.89491C8.0436 7.48846 8.18337 7.42154 8.2888 7.31142C8.39423 7.2013 8.4583 7.05531 8.46936 6.90001V0.600012C8.42369 0.443872 8.33642 0.304534 8.21775 0.198285C8.09907 0.0920352 7.95389 0.0232649 7.79917 1.23734e-05H3.5866C3.20936 -0.0133408 2.8333 0.0511002 2.47993 0.189651C2.12655 0.328202 1.80279 0.538145 1.52714 0.807477C1.2515 1.07681 1.02939 1.40025 0.8735 1.7593C0.717613 2.11835 0.631012 2.50598 0.618647 2.90001V16.8C0.590902 17.1977 0.642233 17.597 0.769411 17.9729C0.89659 18.3489 1.09686 18.6932 1.35764 18.9844C1.61841 19.2756 1.93405 19.5072 2.28469 19.6648C2.63534 19.8224 3.0134 19.9024 3.39512 19.9H7.79917C7.86953 19.915 7.94222 19.9133 8.01186 19.895C8.0815 19.8767 8.1463 19.8423 8.20147 19.7942C8.25664 19.7462 8.30075 19.6859 8.33055 19.6176C8.36035 19.5494 8.37507 19.475 8.37362 19.4Z" fill="black"/>
</g>
<defs>
<clipPath id="clip0_2403:1625">
<rect width="19.1481" height="20" fill="white" transform="translate(0.618652)"/>
</clipPath>
</defs>
</svg>

<svg width="20" height="20" fill="none" xmlns="http://www.w3.org/2000/svg"><g clip-path="url(#clip0_2403:1625)" fill="#000"><path d="M17.756 9.4H9.618v1.2h8.138l-2.01 2.1.861.9 2.968-3.1a.772.772 0 000-.9l-2.968-3.1-.861.9 2.01 2zm-9.382 10v-6.2a.663.663 0 00-.18-.411.611.611 0 00-.395-.189H3.587c.005.317.127.619.342.843.214.224.503.352.806.357H7.13v5H3.587a1.645 1.645 0 01-.669-.095 1.7 1.7 0 01-.581-.357 1.785 1.785 0 01-.405-.565 1.854 1.854 0 01-.164-.683v-14c-.008-.463.158-.91.462-1.247A1.664 1.664 0 013.395 1.3H7.13v5H4.831a1.144 1.144 0 00-.807.357 1.247 1.247 0 00-.342.843h4.213a.611.611 0 00.394-.189.663.663 0 00.18-.411V.6a.864.864 0 00-.251-.402A.808.808 0 007.799 0H3.587A2.762 2.762 0 002.48.19a2.856 2.856 0 00-.953.617 3 3 0 00-.653.952A3.111 3.111 0 00.619 2.9v13.9c-.028.398.023.797.15 1.173.128.376.328.72.589 1.011.26.292.576.523.927.68.35.158.728.238 1.11.236H7.8a.46.46 0 00.402-.106.497.497 0 00.173-.394z"/></g><defs><clipPath id="clip0_2403:1625"><path fill="#fff" transform="translate(.619)" d="M0 0h19.148v20H0z"/></clipPath></defs></svg>
